src/symbols/av-symbol/23F9.svg

<?xml version="1.0" encoding="UTF-8"?>
<svg id="emoji" xmlns="http://www.w3.org/2000/svg" viewBox="0 0 72 72">
  <g id="grid">
    <path d="m68,4v64H4V4h64m4-4H0v72h72V0Z" fill="#b3b3b3"/>
    <path d="m12.923,10.9583h46.1539c1.0621,0,1.9231.861,1.9231,1.9231h0v46.1538c0,1.0621-.861,1.9231-1.9231,1.9231H12.9231c-1.0621,0-1.9231-.861-1.9231-1.9231h0V12.8813c0-1.062.861-1.923,1.923-1.923h0Z" fill="none" stroke="#00a5ff" stroke-miterlimit="10" stroke-width=".1"/>
    <rect x="16" y="4" width="40" height="64" rx="2.2537" ry="2.2537" fill="none" stroke="#00a5ff" stroke-miterlimit="10" stroke-width=".1"/>
    <rect x="4" y="16" width="64" height="40" rx="2.2537" ry="2.2537" fill="none" stroke="#00a5ff" stroke-miterlimit="10" stroke-width=".1"/>
    <circle cx="36" cy="36" r="29" fill="none" stroke="#00a5ff" stroke-miterlimit="10" stroke-width=".1"/>
  </g>
  <g id="color">
    <rect x="17.8848" y="17.7841" width="36.4415" height="36.4415" rx="5.0389" ry="5.0389" fill="#fff"/>
  </g>
  <g id="line">
    <path d="m49.2614,18c2.6129,0,4.7386,2.1257,4.7386,4.7386v26.5229c0,2.6128-2.1257,4.7385-4.7386,4.7385h-26.5228c-2.6129,0-4.7386-2.1257-4.7386-4.7386v-26.5228c0-2.6129,2.1257-4.7386,4.7386-4.7386h26.5228m0-2h-26.5228c-3.7216,0-6.7386,3.017-6.7386,6.7386v26.5229c0,3.7215,3.017,6.7385,6.7386,6.7385h26.5229c3.7215,0,6.7385-3.017,6.7385-6.7386v-26.5228c0-3.7216-3.017-6.7386-6.7386-6.7386h0Z"/>
  </g>
</svg>

<svg id="emoji" viewBox="0 0 72 72" xmlns="http://www.w3.org/2000/svg">
  <g id="grid">
    <path fill="#b3b3b3" d="M68,4V68H4V4H68m4-4H0V72H72V0Z"/>
    <path fill="none" stroke="#00a5ff" stroke-miterlimit="10" stroke-width="0.1" d="M12.923,10.9583H59.0769A1.9231,1.9231,0,0,1,61,12.8814V59.0352a1.9231,1.9231,0,0,1-1.9231,1.9231H12.9231A1.9231,1.9231,0,0,1,11,59.0352V12.8813A1.923,1.923,0,0,1,12.923,10.9583Z"/>
    <rect x="16" y="4" rx="2.2537" width="40" height="64" fill="none" stroke="#00a5ff" stroke-miterlimit="10" stroke-width="0.1"/>
    <rect x="16" y="4" rx="2.2537" width="40" height="64" transform="translate(72) rotate(90)" fill="none" stroke="#00a5ff" stroke-miterlimit="10" stroke-width="0.1"/>
    <circle cx="36" cy="36" r="29" fill="none" stroke="#00a5ff" stroke-miterlimit="10" stroke-width="0.1"/>
  </g>
  <g id="color"/>
  <g id="hair"/>
  <g id="skin"/>
  <g id="skin-shadow"/>
  <g id="line">
    <path fill="#000000" stroke="none" d="M49.2614,18C51.8743,18,54,20.1257,54,22.7386v26.5229C54,51.8743,51.8743,54,49.2614,54H22.7386 C20.1257,54,18,51.8743,18,49.2614V22.7386C18,20.1257,20.1257,18,22.7386,18H49.2614 M49.2614,16H22.7386 C19.017,16,16,19.017,16,22.7386v26.5229C16,52.983,19.017,56,22.7386,56h26.5229C52.983,56,56,52.983,56,49.2614V22.7386 C56,19.017,52.983,16,49.2614,16L49.2614,16z"/>
  </g>
</svg>
